X:1
T:Se'l dolce sguardo
T:Se'l dolce sguardo
T:Girolamo Scotto
T:Source : Secondo Libro delle Muse a tre voci---Venetia---G.Scotto---1562. Editor : André Vierendeels (02/06/16).
T:Notes : Original clefs : C2, C3, C4 Editorial accidentals above the staff Original note values have been halved Square brackets indicate ligatures Text by Francesco Petrarcha (Canzoniere) "Terzi toni"
T:©
T:©
T:©
T:©
T:©
T:©
T:©
C:Girolamo Scotto
Z:©
%%score [ 1 2 3 ]
L:1/8
Q:1/4=96
M:2/2
K:F
V:1 treble nm="Alto" snm="A"
V:2 treble-8 nm="Tenor" snm="T"
V:3 bass nm="Bass" snm="B"
V:1
 z8 | z4 A4- | A4 A4- | A4 A4 | B4 A4 | D4 F4 | E2 A4 G2 | A2 A4 GF | E4 F4- | F2 E2 F2 A2- | %10
w: |Se'l|_ dol-|* ce|sguar- do|di co-|stei m'an- ci-||de, di|_ co- stei m'an|
 A2 G2 A4- | A4 z2 E2 | A6 G2 | B4 A2 F2 | G2 A3 G F2- | F2 E2 F2 D2- | DC/B,/ C2 D4- | D4 z2 F2 | %18
w: _ ci- de,|_ e|le so-|a- ve pa-|ro- let- * *|* * te ac-|* co- * * te,|_ e|
 G2 G2 F4- | F2 ED E2 F2 | E2 A2 F2 G2- | GF F4 E2 | F4 E2 G2 | G2 G2 F4 | E2 G4 C2- | C2 F4 ED | %26
w: s'a- mor so-|* * * * pra|me la fa si|for- * * *|te, sol quan-|do par- la|o- ver quan-|* do _ _|
 EF G4 F2 | G4 A2 D2 | E2 A4 GF | E2 F3 D E2 | F2 ED C2 F2 | E4 z2 A2 | G4 A2 F2 | G2 A3 G F2 | %34
w: _ _ _ sor-|ri- de o-|ver quan- do _|_ sor- * *|ri- * * * *|de, las-|so, che fia,|_ _ _ _|
 E2 G2 DEFG | A6 B2- | BA G2 F2 ED | E2 F4 D2 | E2 FE DC C2- | C2 B,2 C4- | C4 z2 F2 | %41
w: * se for- * * *||||se di- * * * *|* vi- de,|_ O|
 F2 F2 G2 D2 | D2 D2 E2 G2- | G2 F2 G4 | z2 F2 F2 E2 | F2 D3 E F2- | FG A4 G2 | A2 A2 B4- | %48
w: per mia col- p'o|per mal- va- gia|_ sor- te,|gli'oc- chi suoi|da mer- * ce,|_ _ _ _|* si che|
 B2 A2 A4 | G8 | F2 D2 A4- | A2 G2 A2 B2 | A2 F2 E2 G2 | E2 F2 D2 _E2- | ED D3 C/B,/ C2 | %55
w: _ di mor-|te,|la do- ve'hor|_ m'as- si- cu-|* ra, all' hor|_ _ mi sfi-||
 D3 E F4- | F2 E2 F4- | F2 ED C2 F2 | D3 E FG A2- | A2 G2 A4- | A8- | A8 |] %62
w: * * de?|_ All' hor|_ _ _ _ mi|sfi- * * * *||de?|_|
V:2
 A8 | B4 A4 | d4 c4 | f6 f2 | d2 e2 fedc | B3 A/G/ A3 B | c4 d4 | e2 f3 e d2- | d2 c2 B2 A2- | %9
w: Se'l|dol- ce|sguar- do|di co-|stei m'an- ci- * * *||de, di|co- stei _ _|_ m'an- ci- *|
 AB c2 B2 A2 | B4 z2 A2 | d6 c2 | f6 e2 | d2 e2 f2 d2- | d2 e2 f2 d2- | d2 c2 B2 A2- | %16
w: |de, e|le so-|a- ve|pa- ro- let- te'ac-|* cor- te, ac-|* cor- * *|
 A2 G2 A2 B2- | B2 AG F2 B2 | B2 c2 d2 A2 | A2 =B2 c2 A2 | c4 d3 c | B3 A G4 | z2 c2 c2 c2 | %23
w: * * * te,|_ _ _ _ e|s'a- mor so- pra|me la fa si|for- * *|* * te,|sol quan- do|
 GABc d2 A2- | A2 e2 e2 e2 | f2 d2 c2 =B2 | c3 B A4 | G2 c4 B2 | c3 B A4 | c2 A2 B2 A2- | %30
w: par- * * * * la|_ o- ver quan-|do sor- ri- *|de, _ _|o- ver quan-|do _ _|sor- ri- * *|
 A2 G2 A3 B | c8 | c6 d2 | c4 A3 B | cd e2 f2 d2 | e2 f3 e d2- | dccB/c/ d2 B2 | A6 =B2 | %38
w: ||de, las-|so, che _|_ _ _ _ fia|_ _ _ _|* * * * * * se|for- se|
"^b" c2 A2 B2 G2 | F2 F2 G2 A2 | A2 A2 B4 | A4 z2 B2 | B2 B2 c3 B | A4 G2 B2 | A3 G AB c2 | %45
w: el- la di- *|* vi- de, O|per mia col-|pa, O|per mal- va- gia|sor- * *|* * * * te,|
 A2 B3 G A2- | A2 F2 B4 | A2 d2 d4- | d2 c2 d2 f2 | _e2 d3 c/B/ c2 | d2 B2 A2 f2 | f2 e2 f2 d2 | %52
w: gli'oc- chi _ suoi|_ da mer-|ce si che|_ di mor- *||te, la do- ve'hor|m'as- si- cu- ra,|
 c6 B2 | c2 A2 B2 c2 | B2 A4 G2 | A2 B2 A3 G | AB c2 B2 A2- | A2 G2 A4 | B4 A2 F2 | B4 A4- | %60
w: all' hor|mi sfi- * *|* de? All'|hor mi sfi- *||* * de,|mi sfi- *||
 A4 A4- | A8 |] %62
w: * de?|_|
V:3
 z4 D,4- | D,8- | D,4 F,4 | D,4 F,4 | G,4 D,4 | G,4 D,4 | A,4 B,4 | A,4 D,4 | z2 A,,2 D,4- | %9
w: Se'l|_|* dol-|ce sguar-|* do|do co-|stei m'an-|ci- de,|e le|
 D,2 C,2 D,2 F,2 | G,4 D,4 | D,3 E, F,G, A,2 | D,3 E, F,2 C,2 | G,4 F,2 B,2- | B,2 A,2 D,3 E, | %15
w: _ so- a- ve|pa- ro-|let- * * * *|te, _ _ ac-|cor- te pa-|* ro- let- *|
 F,G, A,2 D,4 | _E,4 D,2 G,,2- | G,,A,,B,,C, D,4 |"^b" E,4 D,2 D,2 | F,2 G,2 C,2 D,2 | %20
w: * * te'ac- cor-|||* te, e|s'a- mor so- pra|
 A,,3 A,, B,,2 G,,2 | B,,4 C,4 | F,4 C,3 D, | _E,4 D,4 | z2 C,2 C,2 C,2 | F,2 B,,2 F,2 G,2 | %26
w: me la fa si|for- te,|si for- *|* te,|sol quan- do|parl' o- ver quan-|
 C,4 D,4 | _E,4 D,4 | C,2 F,4 E,D, | C,2 D,4 C,2 | B,,4 A,,2 D,2 | C,4 A,,3 B,, | %32
w: do _|sor- ri-|de, sor- * *|* ri- *|* de, las-|so, che _|
 C,D, E,2 F,2 D,2 | E,2 F,3 E, D,2 | C,4 B,,4 | A,,2 D,2 F,2 G,2 | _E,4 D,2 G,2- | %37
w: _ _ _ _ las-|so che _ _|fi- *|a, se for- s'el-|la di- vi-|
 G,2 F,2 D,2 G,2 | C,2 F,4 _E,2 | D,4 C,2 F,2 | F,2 F,2 G,2 D,2 | D,2 D,2 E,2 G,2- | G,2 G,2 C,4 | %43
w: * de, se for-|s'el- la di-|vi- de, O|per mia col- pa|O mer mal- va|_ gia sor-|
 D,4 z2 G,,2 | D,6 C,2 | D,2 G,4 F,2 | D,4 G,4 | z2 D,2 B,,4- | B,,2 F,2 D,4 | G,3 F, _E,4 | D,8 | %51
w: te, gli'oc-|chi suoi|da mer- *|* ce,|si che|_ di mor-||te,|
 z4 D,4 | A,6 G,2 | A,2 D,4 C,2 | G,2 F,2 _E,4 | D,2 G,,2 D,4- | D,2 C,2 D,3 C, | B,,4 A,,2 D,2 | %58
w: la|do- ve'hor|m'as- si- cu-||ra, all' hor|_ mi sfi- *|* ce? All'|
 G,4 F,2 D,2 | G,4 D,4 | D,2 C,2 D,4 | A,,8 |] %62
w: hor mi sfi-|de, all'|hor mi sfi-|de?|

